!!!COM: Bach, Johann Sebastian
!!!OPR: Joh. Seb. Bachs vierstimmige Choralgesänge
!!!XEN: Four-part Chorales
!!!OTL: Chorale 30. Christus, der uns selig macht
!!!SCT: BWV 283
!!!SCA: Thematisch-systematisches Verzeichnis der musikalischen Werke Johann Sebastian Bach: Bach-Werke-Verzeichnis (Schmieder)
!!!YOR: Bach Gesellschaft Edition xxxix
!!!ENC: Steven Rasmussen
!!!CDT: 1685/3//-1750/7/28/
!!!OCY: Deutschland
!!!YEC: Copyright (c) 1994, 2000 Center for Computer Assisted Research in the Humanities
!!!YEM: Rights to all derivative editions reserved
!!!YEN: United States of America
**kern	**silbe	**kern	**silbe	**kern	**kern	**silbe
*I"[BASSO]	*I"[BASSO]	*I"[TENORE]	*I"[TENORE]	*I"[ALTO]	*I"[SOPRANO]	*I"[SOPRANO]
*clefF4	*	*clefGv2	*	*clefG2	*clefG2	*
*k[]	*	*k[]	*	*k[]	*k[]	*
*a:	*	*a:	*	*a:	*a:	*
*M4/4	*	*M4/4	*	*M4/4	*M4/4	*
=1-	=1-	=1-	=1-	=1-	=1-	=1-
8EL	.	4B	.	8g#L	4ee	Chri-
8F#J	.	.	.	8aJ	.	.
8G#L	.	8eL	.	8bL	4ee	-stus,
8EJ	.	8dJ	.	8g#J	.	.
8AL	.	8cL	.	4a	4ee	der
8BJ	.	8dJ	.	.	.	.
8cL	.	8eL	.	4a	4ee	uns
8AJ	.	8cJ	.	.	.	.
=2	=2	=2	=2	=2	=2	=2
8F#L	.	8cL	.	8aL	4dd	se-
8G#J	.	8BJ	.	8eJ	.	.
8AL	.	8BL	.	4e	4cc	-lig
8AAJ	.	8AJ	.	.	.	.
2E;	.	(4A	.	2e;	2b;	macht,
.	.	4G#;)	.	.	.	.
=3	=3	=3	=3	=3	=3	=3
4F	.	4A	.	8cL	4a	kein
.	.	.	.	8dJ	.	.
8EL	.	4B	.	4e	4g#	Bös's
8DJ	.	.	.	.	.	.
4C	.	4c	.	8eL	4a	hat
.	.	.	.	8f#J	.	.
8BBL	.	8dL	.	8g#L	8bL	be-
8AAJ	.	8eJ	.	8aJ	8ccJ	.
=4	=4	=4	=4	=4	=4	=4
8AAL	.	8fL	.	4.b	4dd	-gan-
8GG#	.	[8eJ	.	.	.	.
8AA	.	4e]	.	.	4cc	.
8CJ	.	.	.	8a	.	.
2E;	.	2e;	.	(4a	2b;	-gen,
.	.	.	.	4g#;)	.	.
=5	=5	=5	=5	=5	=5	=5
8FL	.	4c	.	8aL	4a	der
8EJ	.	.	.	8gJ	.	.
4D	.	4d	.	4f	4b	ward
4E	.	4c	.	4g	8ccL	für
.	.	.	.	.	8bJ	.
4F	.	8cL	.	8gL	4a	uns
.	.	8dJ	.	8fJ	.	.
=6	=6	=6	=6	=6	=6	=6
4C#	.	4A	.	4e	8aL	in
.	.	.	.	.	8gJ	.
4D	.	4A	.	8eL	4f	der
.	.	.	.	8dJ	.	.
2AA;	.	2A;	.	2c#;	2e;	Nacht
=7	=7	=7	=7	=7	=7	=7
4BB-	.	8FL	.	8dL	4d	als
.	.	8DJ	.	8GJ	.	.
8AAL	.	4E	.	4A	4c#	ein
8GGJ	.	.	.	.	.	.
4FF	.	4F	.	8AL	4d	Dieb
.	.	.	.	8BJ	.	.
8EEL	.	8GL	.	8c#L	8eL	ge-
8DDJ	.	8AJ	.	8dJ	8fJ	.
=8	=8	=8	=8	=8	=8	=8
8DDL	.	8B-L	.	4.e	4g	-fan-
8CC#	.	[8AJ	.	.	.	.
8DD	.	4A]	.	.	4f	.
8FFJ	.	.	.	8d	.	.
2AA;	.	2A;	.	2c#;	2e;	-gen,
=9	=9	=9	=9	=9	=9	=9
8FFL	.	8AL	.	4c	4a	ge-
8GGJ	.	8B-J	.	.	.	.
8AAL	.	4c	.	4f	4a	-führt
8BB-J	.	.	.	.	.	.
4.C	.	4.c	.	8fL	4a	vor
.	.	.	.	16eL	.	.
.	.	.	.	16dJJ	.	.
.	.	.	.	4e	4g	gott-
8C#	.	8B-	.	.	.	.
=10	=10	=10	=10	=10	=10	=10
4D	.	4.A	.	(8e	4f	-lo-
.	.	.	.	4d)	.	.
4AA	.	.	.	.	4e	-se
.	.	16ALL	.	8c#	.	.
.	.	16GJJ	.	.	.	.
2DD;	.	2F;	.	2d;	2d;	Leut'
=11	=11	=11	=11	=11	=11	=11
4E	.	8GL	.	8BL	4g	und
.	.	8cJ	.	8eJ	.	.
4F#	.	8cL	.	8eL	4a	fälsch-
.	.	16dL	.	8dJ	.	.
.	.	16cJJ	.	.	.	.
8GL	.	8BL	.	4d	4b	-lich
8FnJ	.	8dJ	.	.	.	.
4E	.	8GL	.	4e	4cc	ver-
.	.	8cJ	.	.	.	.
=12	=12	=12	=12	=12	=12	=12
8DL	.	8cL	.	8fL	4dd	-kla-
8GJ	.	8B	.	[8g	.	.
[4C	.	8c	.	8g]	4ee	.
.	.	8eJ	.	[8aJ	.	.
8CL]	.	4.f	.	8aL]	4dd	.
8BB	.	.	.	[8gJ	.	.
8C	.	.	.	4g]	4cc	.
8EJ	.	8e	.	.	.	.
=13	=13	=13	=13	=13	=13	=13
2G;	.	2d;	.	2g;	2b;	-get,
4A	.	4c	.	8eL	4a	ver-
.	.	.	.	8f#J	.	.
8GL	.	4d	.	4g	4b	-lacht,
8FJ	.	.	.	.	.	.
=14	=14	=14	=14	=14	=14	=14
4E	.	4.c	.	4g	8ccL	ver-
.	.	.	.	.	8bJ	.
8FL	.	.	.	8aL	4a	-höhnt,
8EJ	.	8c#	.	8gJ	.	.
8DL	.	4d	.	8fL	8aL	und
8EJ	.	.	.	8eJ	8gJ	.
8FL	.	4A	.	4d	4f	ver-
8GJ	.	.	.	.	.	.
=15	=15	=15	=15	=15	=15	=15
2A;	.	2A;	.	(4d	2e;	-speit,
.	.	.	.	4c#;)	.	.
4F	.	4A	.	8dL	4d	wie
.	.	.	.	8AJ	.	.
4E	.	8GL	.	8B-L	4c#	denn
.	.	8EJ	.	8GJ	.	.
=16	=16	=16	=16	=16	=16	=16
4D	.	(4F	die	8AL	4d	die
.	.	.	.	8BJ	.	.
[4C	Schrift	4G)	.	8cL	8eL	Schrift
.	.	.	.	8dJ	8fJ	.
8CL]	.	4c	Schrift	4e	4g	sa-
8BB-J	.	.	.	.	.	.
8AAL	sa-	[4c	sa-	[4f	4a	.
8FFJ	.	.	.	.	.	.
=17	=17	=17	=17	=17	=17	=17
4C	.	8.cL]	.	8f]	4g	.
.	.	.	.	4e	.	.
.	.	16B-Jk	.	.	.	.
4D	.	8AL	.	.	4f	.
.	.	16BnL	.	16dLL	.	.
.	.	16AJJ	.	16cJJ	.	.
2E;	-get.	2G#;	-get.	2B;	2e;	-get.
==|!	==|!	==|!	==|!	==|!	==|!	==|!
*-	*-	*-	*-	*-	*-	*-
!!!RWG: Key is interpreted using the Humdrum key tool.
!!!URL-pdf: https://s9.imslp.org/files/imglnks/usimg/6/6b/IMSLP24489-PMLP09471-CCARH_Bach_Chorales.pdf#page=21 Musedata edition
!!!URL-pdf: https://s9.imslp.org/files/imglnks/usimg/7/7a/IMSLP04155-Bach_-_BGA_253-438.pdf#page=18 	Bach-Gesellschaft Ausgabe, Band 39 (pp.175-276) Leipzig: Breitkopf und Härtel, 1892. Plate B.W. XXXIX.
!!!END: 1994/05/11
!!!EMD: Converted from MuseData to Humdrum Dec 19, 2000, by Andreas Kornstaedt using muse2kern.
!!!EED: Craig Stuart Sapp
!!!EEV: 2024/03/31
!!!filter-keyboard: extract -i kern | satb2gs
!!!title: @{OTL} (@{SCT})
